!!!COM:	la Rue, Pierre de
!!!CDT:	~1452///-1518/11/20
!!!OTL:	Pour ce que le suis
!!!AGN:	Song; Chanson
!!!SCT:	Rue3017
!!!SCA:	Rue3017
!!!voices:	4
**kern	**kern	**kern	**kern
*staff4	*staff3	*staff2	*staff1
*Ivox	*Ivox	*Ivox	*Ivox
*I"Bassus	*I"Tenor	*I"Contra	*I"Discantus
*I'B	*I'T	*I'C	*I'D
*clefF4	*clefGv2	*clefGv2	*clefG2
*k[b-]	*k[b-]	*k[b-]	*k[b-]
*M2/1	*M2/1	*M2/1	*M2/1
*met(C|)	*met(C|)	*met(C|)	*met(C|)
=1-	=1-	=1-	=1-
0r	1G	0r	2r
.	.	.	2g/
.	1c	.	2a/
.	.	.	2g/
=2	=2	=2	=2
0r	1c	0r	4a/
.	.	.	4g/
.	.	.	1cc
.	1d	.	.
.	.	.	2b-\
=3	=3	=3	=3
0r	1c	0r	2cc\
.	.	.	2a/
.	2r	.	4b-\
.	.	.	4a/
.	[2c\	.	4g/
.	.	.	4f/
=4	=4	=4	=4
0r	2c\]	0r	4g/
.	.	.	4f/
.	1c	.	4e/
.	.	.	4d/
.	.	.	1e
.	4B-\	.	.
.	4A/	.	.
=5	=5	=5	=5
0r	4B-\	0r	2r
.	4A/	.	.
.	4G/	.	2d/
.	4F/	.	.
.	2G/	.	2e/
.	2d\	.	2d/
=6	=6	=6	=6
1r	4c\	1r	4e/
.	4B-\	.	4d/
.	4A/	.	1g
.	4G/	.	.
1D	1A	2r	.
.	.	2d\	2f#i/
=7	=7	=7	=7
1G	1G	2e\	0g
.	.	2d\	.
1G	1r	4e\	.
.	.	4d\	.
.	.	[2g\	.
=8	=8	=8	=8
1A	0r	2g\]	0r
.	.	2f\	.
1G	.	2g\	.
.	.	2e\	.
=9	=9	=9	=9
2r	0r	4f\	0r
.	.	4e\	.
1G	.	4d\	.
.	.	4c\	.
.	.	4d\	.
.	.	4c\	.
[2G\	.	4B-\	.
.	.	4A/	.
=10	=10	=10	=10
2G\]	0r	2B-\	0r
1A	.	4A/	.
.	.	4B-\	.
.	.	4c\	.
.	.	4d\	.
4G\	.	[2e\	.
4F\	.	.	.
=11	=11	=11	=11
4G\	1r	2e\]	0r
4F\	.	.	.
4E\	.	1d	.
4D\	.	.	.
1E	2r	.	.
.	[2G/	2c\	.
=12	=12	=12	=12
1D	2G/]	2d\	0r
.	2F/	1B-	.
1GG	2G/	.	.
.	[2B-\	4A/	.
.	.	4G/	.
=13	=13	=13	=13
0r	2B-\]	2.d\	2r
.	4A/	.	1g
.	4G/	4c\	.
.	[1d	2.B-\	.
.	.	.	2f/
.	.	4A/	.
=14	=14	=14	=14
1r	1d]	0G	2g/
.	.	.	1b-
2r	1r	.	.
[2GG/	.	.	4a/
.	.	.	4g/
=15	=15	=15	=15
2GG/]	1r	1r	0dd
2FF/	.	.	.
2GG/	1d	2.d\	.
[2BB-/	.	.	.
.	.	4e\	.
=16	=16	=16	=16
2BB-/]	2d\	2f\	1r
4AA/	2d\	1g	.
4GG/	.	.	.
1D	[1d	.	1dd
.	.	2f#i\	.
=17	=17	=17	=17
1GG	1d]	0g	2dd\
.	.	.	2dd\
2GG/	2d\	.	[1dd
2GG/	4c\	.	.
.	4B-\	.	.
=18	=18	=18	=18
1D	[0A	1f	1dd]
1D	.	2f\	2dd\
.	.	2f\	4cc\
.	.	.	4b-\
=19	=19	=19	=19
1C	0A]	2.e\	0a
.	.	8d\L	.
.	.	8e\J	.
1D	.	2f\	.
.	.	[2d\	.
=20	=20	=20	=20
0BB-	0B-	4d\]	1r
.	.	4c\	.
.	.	4B-\	.
.	.	4A/	.
.	.	2.G/	1dd
.	.	4F/	.
=21	=21	=21	=21
0AA	0c	0A	2cc\
.	.	.	1a
.	.	.	4g/
.	.	.	4f/
=22	=22	=22	=22
2r	1c	0r	2e/
2.F\	.	.	2.a/
.	1d	.	.
4D\	.	.	4f/
[2G\	.	.	[2b-\
=23	=23	=23	=23
4G\]	1c	0r	2b-\]
4E\	.	.	.
2F\	.	.	1a
1G	1B-	.	.
.	.	.	2g/
=24	=24	=24	=24
1D	0A	2r	0a
.	.	1d	.
[1F	.	.	.
.	.	4c\	.
.	.	4B-\	.
=25	=25	=25	=25
1F]	0r	2A/	0r
.	.	2.d\	.
1G	.	.	.
.	.	4B-\	.
.	.	[2e-i\	.
=26	=26	=26	=26
1F	0r	2e-\]	0r
.	.	1d	.
1E	.	.	.
.	.	2c\	.
=27	=27	=27	=27
1D	0r	2d\	0r
.	.	1B-	.
2r	.	.	.
2D\	.	4A/	.
.	.	4G/	.
=28	=28	=28	=28
1F	1r	2.A/	0r
.	.	4D/	.
1F	2r	1D	.
.	2A/	.	.
=29	=29	=29	=29
0F	1c	2r	1r
.	.	2f\	.
.	1c	1f	2r
.	.	.	2a/
=30	=30	=30	=30
1F	1c	1f	1cc
[1F	1c	1f	1cc
=31	=31	=31	=31
2F\]	1c	1f	1.cc
4E\	.	.	.
4D\	.	.	.
2.C/	1c	2.e\	.
.	.	.	4b-\
4D\	.	4d\	4a/
=32	=32	=32	=32
2E\	[0c	4c\	2g/
.	.	4B-\	.
1F	.	2A/	1a
.	.	2F/	.
2E\	.	2G/	2g/
=33	=33	=33	=33
0F	0c]	2F/	2a/
.	.	2.A/	2.f/
.	.	4B-\	4g/
.	.	2c\	2a/
=34	=34	=34	=34
1r	1d	2B-\	2d/
.	.	2.G/	2b-\
2r	1r	.	2cc\
.	.	4A/	.
2BB-/	.	2B-\	2dd\
=35	=35	=35	=35
2C/	2r	2.g\	2g/
2D\	2B-\	.	1b-
.	.	4f\	.
2E\	2c\	4e\	.
.	.	4d\	.
2F\	2d\	[2d\	[2a/
=36	=36	=36	=36
2G\	1G	2d\]	2a/]
2E\	.	2c\	1g
1D	1A	1d	.
.	.	.	2f#i/
=37	=37	=37	=37
0GG	0G	2r	1g
.	.	1B-	.
.	.	.	2r
.	.	4A/	[2b-\
.	.	4G/	.
=38	=38	=38	=38
1r	2F/	0d	2b-\]
.	1G	.	4a/
.	.	.	4g/
1GG	.	.	1dd
.	2B-\	.	.
=39	=39	=39	=39
2FF/	2A/	1r	0r
1GG	2G/	.	.
.	1d	2.d\	.
[2BB-/	.	.	.
.	.	4e\	.
=40	=40	=40	=40
2BB-/]	1d	2f\	1r
4AA/	.	1g	.
4GG/	.	.	.
1D	2d\	.	1dd
.	2d\	2f#i\	.
=41	=41	=41	=41
0GG	1d	0g	2dd\
.	.	.	2dd\
.	1d	.	2dd\
.	.	.	4cc\
.	.	.	4b-\
=42	=42	=42	=42
1r	0r	2r	2a/
.	.	2G/	2b-\
1G	.	1B-	1g
=43	=43	=43	=43
2.D\	2r	2A/	1f
.	2B-\	1d	.
4E\	.	.	.
2F\	2A/	.	1r
[2G\	2B-\	[2e\	.
=44	=44	=44	=44
2G\]	1G	4e\]	0r
.	.	4f\	.
2B-\	.	2g\	.
2A\	1F	2c\	.
2F\	.	[2f\	.
=45	=45	=45	=45
1G	2r	2f\]	0r
.	2B-\	2e\	.
1F	2A/	1f	.
.	2F/	.	.
=46	=46	=46	=46
1BB-	2G/	0r	2r
.	2d\	.	2b-\
1r	2c\	.	2a/
.	2A/	.	2f/
=47	=47	=47	=47
2r	1B-	2r	2g/
2BB-/	.	2f\	2dd\
2F\	1A	2f\	2cc\
2F\	.	2f\	2a/
=48	=48	=48	=48
2G\	0r	2d\	1b-
2G\	.	2e\	.
2D\	.	2f\	1a
2F\	.	2d\	.
=49	=49	=49	=49
1G	2r	1e	0r
.	2B-\	.	.
1D	2A/	1f	.
.	2F/	.	.
=50	=50	=50	=50
0r	2G/	0r	2r
.	2d\	.	2b-\
.	2c\	.	2a/
.	2A/	.	2f/
=51	=51	=51	=51
2r	1B-	2r	2g/
2BB-/	.	2f\	2dd\
2F\	1A	2f\	2cc\
2F\	.	2f\	2a/
=52	=52	=52	=52
2G\	1r	2d\	1b-
2G\	.	2e\	.
2D\	2r	1f	1a
2F\	2A/	.	.
=53	=53	=53	=53
1G	1B-	1r	1r
1D	1A	2r	2r
.	.	2f\	2a/
=54	=54	=54	=54
1r	1r	1g	1b-
2r	2r	1d	1a
2F\	2A/	.	.
=55	=55	=55	=55
1G	1B-	1r	1r
2D\	2A/	2r	2r
2F\	2A/	2d\	2a/
=56	=56	=56	=56
2G\	2d\	2g\	2b-\
2D\	2d\	2f\	2a/
2G\	2B-\	2e\	2b-\
2F\	2c\	2f\	2a/
=57	=57	=57	=57
2G\	2B-\	2d\	2b-\
2C/	2c\	2e\	4a/
.	.	.	4g/
1D	1A	1d	2.f#i/
.	.	.	4e/
=58	=58	=58	=58
0GGl	0Gl	0dl	0gl
==	==	==	==
*-	*-	*-	*-
!!!RDF**kern: l=long note in original notation
!!!RDF**kern: i=editorial accidental
!!!ENC:	Chris Gage 06-17-2013
!!!END:	2013/08/06/
!!!EED:	Jesse Rodin
!!!EEV:	2013/08/06/
!!!ONB:	Translated from MusicXML and edited on 2013/08/06/ by Craig Sapp
!!muse2ps: C^@{COM}^i2I150v85,85,85,150Q16
